data/pieces/simple/blackQueen.svg

<svg xmlns="http://www.w3.org/2000/svg" width="1000pt" height="1000pt" viewBox="0 0 1000 1000"><path d="M55 228c0-36 30-66 66-66s66 30 66 66c0 10-3 29-18 45l120 232V243c-25-5-51-25-51-64 0-36 29-65 65-65s65 29 65 65c0 24-7 37-28 54l91 262 38-282c-17-9-34-25-34-59 0-36 29-65 65-65s65 29 65 65c0 34-17 50-34 59l38 282 91-262c-21-17-28-30-28-54 0-36 29-65 65-65s65 29 65 65c0 39-26 59-51 64v262l120-232c-15-16-18-35-18-45 0-36 30-66 66-66s66 30 66 66c0 32-22 63-63 66l-58 305q-3 19.5-3 27c0 10 0 30-20 40-40 20-61 71-61 101 0 27 14 55 24 73 4 8 7 15 7 18 0 53-180 81-271 81s-271-28-271-81c0-3 3-10 7-18 10-18 24-46 24-73 0-30-21-81-61-101-20-10-20-30-20-40q0-7.5-3-27l-58-305c-41-3-63-34-63-66" style="stroke-width:2;stroke-linecap:butt;stroke-linejoin:miter;stroke:#fff;stroke-opacity:1;stroke-miterlimit:10;fill-rule:nonzero;fill:#fff;fill-opacity:1"/><path d="M55 228c0-36 30-66 66-66s66 30 66 66c0 10-3 29-18 45l120 232V243c-25-5-51-25-51-64 0-36 29-65 65-65s65 29 65 65c0 24-7 37-28 54l91 262 38-282c-17-9-34-25-34-59 0-36 29-65 65-65s65 29 65 65c0 34-17 50-34 59l38 282 91-262c-21-17-28-30-28-54 0-36 29-65 65-65s65 29 65 65c0 39-26 59-51 64v262l120-232c-15-16-18-35-18-45 0-36 30-66 66-66s66 30 66 66c0 32-22 63-63 66l-58 305q-3 19.5-3 27c0 10 0 30-20 40-40 20-61 71-61 101 0 27 14 55 24 73 4 8 7 15 7 18 0 53-180 81-271 81s-271-28-271-81c0-3 3-10 7-18 10-18 24-46 24-73 0-30-21-81-61-101-20-10-20-30-20-40q0-7.5-3-27l-58-305c-41-3-63-34-63-66m232 442c11 14 15 27 18 41 54-14 135-20 195-20s141 6 195 20c3-14 7-27 18-41v-3c-57-15-143-24-213-24s-156 9-213 24zm22 141c11 9 19 16 29 31 57-11 114-15 162-15s105 4 162 15c10-15 18-22 29-31v-4c-65-14-133-20-191-20s-126 6-191 20z" style="stroke:none;fill-rule:nonzero;fill:#000;fill-opacity:1"/></svg>

<?xml version="1.0" encoding="UTF-8"?>
<!--
    Image is based on original work of Max Froumentin (mf@w3.org) which
    used to be available at:

    http://people.w3.org/maxf/ChessGML/ChessSophia.svg

    These images are under the W3C Software Notice and License, see
    COPYING.html for details.
-->
<svg xmlns="http://www.w3.org/2000/svg" xmlns:xlink="http://www.w3.org/1999/xlink" width="1000pt" height="1000pt" viewBox="0 0 1000 1000" version="1.1">
<g id="surface0">
<path style="stroke-width:2;stroke-linecap:butt;stroke-linejoin:miter;stroke:white;stroke-opacity:1;stroke-miterlimit:10;fill-rule:nonzero;fill:white;fill-opacity:1;" d="M 55 228 C 55 192 85 162 121 162 C 157 162 187 192 187 228 C 187 238 184 257 169 273 L 289 505 L 289 243 C 264 238 238 218 238 179 C 238 143 267 114 303 114 C 339 114 368 143 368 179 C 368 203 361 216 340 233 L 431 495 L 469 213 C 452 204 435 188 435 154 C 435 118 464 89 500 89 C 536 89 565 118 565 154 C 565 188 548 204 531 213 L 569 495 L 660 233 C 639 216 632 203 632 179 C 632 143 661 114 697 114 C 733 114 762 143 762 179 C 762 218 736 238 711 243 L 711 505 L 831 273 C 816 257 813 238 813 228 C 813 192 843 162 879 162 C 915 162 945 192 945 228 C 945 260 923 291 882 294 L 824 599 C 822 612 821 621 821 626 C 821 636 821 656 801 666 C 761 686 740 737 740 767 C 740 794 754 822 764 840 C 768 848 771 855 771 858 C 771 911 591 939 500 939 C 409 939 229 911 229 858 C 229 855 232 848 236 840 C 246 822 260 794 260 767 C 260 737 239 686 199 666 C 179 656 179 636 179 626 C 179 621 178 612 176 599 L 118 294 C 77 291 55 260 55 228"/>
<path style="stroke:none;fill-rule:nonzero;fill:black;fill-opacity:1;" d="M 55 228 C 55 192 85 162 121 162 C 157 162 187 192 187 228 C 187 238 184 257 169 273 L 289 505 L 289 243 C 264 238 238 218 238 179 C 238 143 267 114 303 114 C 339 114 368 143 368 179 C 368 203 361 216 340 233 L 431 495 L 469 213 C 452 204 435 188 435 154 C 435 118 464 89 500 89 C 536 89 565 118 565 154 C 565 188 548 204 531 213 L 569 495 L 660 233 C 639 216 632 203 632 179 C 632 143 661 114 697 114 C 733 114 762 143 762 179 C 762 218 736 238 711 243 L 711 505 L 831 273 C 816 257 813 238 813 228 C 813 192 843 162 879 162 C 915 162 945 192 945 228 C 945 260 923 291 882 294 L 824 599 C 822 612 821 621 821 626 C 821 636 821 656 801 666 C 761 686 740 737 740 767 C 740 794 754 822 764 840 C 768 848 771 855 771 858 C 771 911 591 939 500 939 C 409 939 229 911 229 858 C 229 855 232 848 236 840 C 246 822 260 794 260 767 C 260 737 239 686 199 666 C 179 656 179 636 179 626 C 179 621 178 612 176 599 L 118 294 C 77 291 55 260 55 228 M 287 670 C 298 684 302 697 305 711 C 359 697 440 691 500 691 C 560 691 641 697 695 711 C 698 697 702 684 713 670 L 713 667 C 656 652 570 643 500 643 C 430 643 344 652 287 667 L 287 670 M 309 811 C 320 820 328 827 338 842 C 395 831 452 827 500 827 C 548 827 605 831 662 842 C 672 827 680 820 691 811 L 691 807 C 626 793 558 787 500 787 C 442 787 374 793 309 807 L 309 811"/>
</g>
</svg>
